lib/brands/icons/java.svg

<svg xmlns="http://www.w3.org/2000/svg" fill="none" aria-hidden="true" viewBox="0 0 48 48"><g id="java-Icon"><g id="Group"><g id="Union"><path fill="#5382A1" d="M31.6743 32.3763C38.4285 28.8665 35.3056 25.4937 33.1259 25.9481C32.5917 26.0593 32.3534 26.1557 32.3534 26.1557C32.3534 26.1557 32.5518 25.845 32.9306 25.7105C37.2428 24.1945 40.5591 30.1818 31.5386 32.5532C31.5386 32.5533 31.6431 32.4598 31.6743 32.3763Z"/><path fill="#5382A1" d="M17.6201 27.9338C13.3942 27.3695 19.9372 25.8154 19.9372 25.8154C19.9372 25.8154 17.3963 25.6441 14.2713 27.1547C10.5761 28.9421 23.4116 29.755 30.0558 28.0076C30.7466 27.5359 31.7014 27.127 31.7014 27.127C31.7014 27.127 28.9824 27.6126 26.2747 27.8411C22.9614 28.1187 19.4044 28.1727 17.6201 27.9338Z"/><path fill="#5382A1" d="M19.2281 31.2853C16.8716 31.0416 18.4146 29.8994 18.4146 29.8994C12.3168 31.9233 21.8073 34.2184 30.328 31.7268C29.4224 31.4075 28.8464 30.8235 28.8464 30.8235C24.6821 31.6254 22.2755 31.5997 19.2281 31.2853Z"/><path fill="#5382A1" d="M20.2545 34.9116C17.8997 34.6408 19.2755 33.8408 19.2755 33.8408C13.7401 35.3875 22.6424 38.5828 29.6898 35.5624C28.5355 35.1136 27.709 34.5953 27.709 34.5953C24.5652 35.1903 23.1072 35.237 20.2545 34.9116Z"/><path fill="#5382A1" d="M34.995 36.7561C34.995 36.7561 36.013 37.595 33.8738 38.2439C29.8059 39.4762 16.943 39.8483 13.3697 38.293C12.0852 37.7342 14.494 36.9587 15.2517 36.796C16.0419 36.6247 16.4935 36.6566 16.4935 36.6566C15.065 35.6503 7.26027 38.6325 12.5291 39.4866C26.8979 41.8168 38.7221 38.4373 34.995 36.7561Z"/><path fill="#5382A1" d="M37.2754 38.5889C37.0396 41.6565 27.084 42.3018 20.6008 41.8868C16.3713 41.6155 15.5237 40.9377 15.5114 40.9278C19.5592 41.5952 26.3839 41.7167 31.9174 40.6753C36.8222 39.7518 37.2754 38.5889 37.2754 38.5889Z"/></g><g id="Union_2"><path fill="#E76F00" d="M24.0552 15.4957C31.3435 9.74183 27.603 6 27.603 6C28.6101 9.9661 25.9041 12.0848 23.2596 14.1556C21.9409 15.1881 20.6375 16.2086 19.8173 17.4403C18.1377 19.9622 20.6413 22.6718 24.0528 25.7498C23.7512 25.0681 23.286 24.4057 22.8151 23.735C21.209 21.4477 19.5358 19.0648 24.0552 15.4957Z"/><path fill="#E76F00" d="M25.2185 27.0119C25.2185 27.0119 27.4112 25.2128 25.6748 23.2136C19.7884 16.4311 32.1127 13.353 32.1127 13.353C24.5984 17.711 25.6041 19.1079 27.3622 21.5499C27.4411 21.6595 27.5215 21.7712 27.6028 21.8854C29.6277 24.7357 25.2185 27.0119 25.2185 27.0119Z"/></g></g></g></svg>

<svg xmlns="http://www.w3.org/2000/svg" fill="none" aria-hidden="true" viewBox="0 0 48 48"><g fill="#5382A1"><path d="M31.674 32.376c6.755-3.51 3.632-6.882 1.452-6.428-.534.111-.773.208-.773.208s.199-.311.578-.445c4.312-1.516 7.628 4.47-1.392 6.842 0 0 .104-.093.135-.177ZM17.62 27.934c-4.226-.565 2.317-2.119 2.317-2.119s-2.54-.17-5.666 1.34c-3.695 1.787 9.14 2.6 15.785.853.69-.472 1.645-.881 1.645-.881s-2.719.486-5.426.714c-3.314.278-6.87.332-8.655.093Zm1.608 3.351c-2.356-.243-.813-1.386-.813-1.386-6.098 2.024 3.392 4.32 11.913 1.828a4.268 4.268 0 0 1-1.482-.904c-4.164.802-6.57.777-9.618.462Zm1.027 3.627c-2.355-.271-.98-1.071-.98-1.071-5.535 1.547 3.367 4.742 10.415 1.721-1.155-.448-1.981-.967-1.981-.967-3.144.595-4.602.642-7.454.317Z"/><path d="M34.995 36.756s1.018.839-1.121 1.488c-4.068 1.232-16.931 1.604-20.504.049-1.285-.559 1.124-1.334 1.882-1.497.79-.171 1.242-.14 1.242-.14-1.429-1.006-9.234 1.977-3.965 2.83 14.369 2.33 26.193-1.049 22.466-2.73Z"/><path d="M37.275 38.589c-.235 3.068-10.191 3.713-16.674 3.298-4.23-.272-5.077-.95-5.09-.96 4.048.668 10.873.79 16.406-.252 4.905-.923 5.358-2.086 5.358-2.086Z"/></g><g fill="#E76F00"><path d="M24.055 15.496C31.343 9.742 27.603 6 27.603 6c1.007 3.966-1.699 6.085-4.343 8.156-1.32 1.032-2.623 2.053-3.443 3.284-1.68 2.522.824 5.232 4.236 8.31-.302-.682-.767-1.344-1.238-2.015-1.606-2.287-3.28-4.67 1.24-8.24Z"/><path d="M25.218 27.012s2.193-1.8.457-3.798c-5.887-6.783 6.438-9.861 6.438-9.861-7.515 4.358-6.509 5.755-4.75 8.197l.24.335c2.025 2.85-2.385 5.127-2.385 5.127Z"/></g></svg>
